public/luts/bleach_bypass.cube
TITLE "Bleach Bypass — luma desat + linear S-curve"
# Hand-authored by scripts/generate-bleach-bypass-lut.mjs
# Recipe: L = 0.2126*R + 0.7152*G + 0.0722*B (Rec.709 luma)
#         rgb_desat = lerp(rgb, vec3(L), 0.65)
#         out = clamp((rgb_desat - 0.5) * 1.4 + 0.5)
LUT_3D_SIZE 9
0.000000 0.000000 0.000000
0.000000 0.000000 0.000000
0.000000 0.000000 0.000000
0.056300 0.000000 0.000000
0.141733 0.000000 0.000000
0.227166 0.000000 0.000000
0.312599 0.000000 0.000000
0.398033 0.000000 0.000000
0.483466 0.000000 0.000000
0.000000 0.000000 0.000000
0.000000 0.000000 0.000000
0.052221 0.000000 0.000000
0.137654 0.015154 0.000000
0.223087 0.039337 0.000000
0.308520 0.063520 0.002270
0.393953 0.087704 0.026454
0.479387 0.111887 0.050637
0.564820 0.136070 0.074820
0.000000 0.085208 0.000000
0.048141 0.109391 0.000000
0.133574 0.133574 0.011075
0.219008 0.157758 0.035258
0.304441 0.181941 0.059441
0.389874 0.206124 0.083624
0.475307 0.230307 0.107808
0.560741 0.254491 0.131991
0.646174 0.278674 0.156174
0.044062 0.227812 0.044062
0.129495 0.251995 0.068245
0.214929 0.276179 0.092429
0.300362 0.300362 0.116612
0.385795 0.324545 0.140795
0.471228 0.348728 0.164978
0.556661 0.372911 0.189162
0.642095 0.397095 0.213345
0.727528 0.421278 0.237528
0.125416 0.370416 0.125416
0.210849 0.394599 0.149599
0.296282 0.418782 0.173783
0.381716 0.442966 0.197966
0.467149 0.467149 0.222149
0.552582 0.491332 0.246332
0.638016 0.515516 0.270516
0.723449 0.539699 0.294699
0.808882 0.563882 0.318882
0.206770 0.513020 0.206770
0.292203 0.537203 0.230953
0.377637 0.561387 0.255136
0.463070 0.585570 0.279320
0.548503 0.609753 0.303503
0.633936 0.633936 0.327686
0.719369 0.658119 0.351869
0.804803 0.682303 0.376053
0.890236 0.706486 0.400236
0.288124 0.655624 0.288124
0.373557 0.679807 0.312307
0.458991 0.703990 0.336491
0.544424 0.728174 0.360674
0.629857 0.752357 0.384857
0.715290 0.776540 0.409040
0.800723 0.800723 0.433223
0.886157 0.824907 0.457407
0.971590 0.849090 0.481590
0.369478 0.798228 0.369478
0.454911 0.822411 0.393661
0.540344 0.846594 0.417844
0.625778 0.870778 0.442028
0.711211 0.894961 0.466211
0.796644 0.919144 0.490394
0.882077 0.943327 0.514577
0.967511 0.967511 0.538761
1.000000 0.991694 0.562944
0.450832 0.940832 0.450832
0.536265 0.965015 0.475015
0.621699 0.989198 0.499199
0.707132 1.000000 0.523382
0.792565 1.000000 0.547565
0.877998 1.000000 0.571748
0.963431 1.000000 0.595931
1.000000 1.000000 0.620115
1.000000 1.000000 0.644298
0.000000 0.000000 0.000000
0.000000 0.000000 0.000000
0.000000 0.000000 0.000000
0.064512 0.000000 0.000000
0.149946 0.000000 0.000000
0.235379 0.000000 0.000000
0.320812 0.000000 0.014562
0.406245 0.000000 0.038745
0.491679 0.001679 0.062929
0.000000 0.000000 0.000000
0.000000 0.000000 0.000000
0.060433 0.000000 0.000000
0.145867 0.023367 0.023367
0.231300 0.047550 0.047550
0.316733 0.071733 0.071733
0.402166 0.095916 0.095916
0.487599 0.120099 0.120099
0.573033 0.144283 0.144283
0.000000 0.093421 0.032171
0.056354 0.117604 0.056354
0.141787 0.141787 0.080537
0.227220 0.165971 0.104721
0.312654 0.190154 0.128904
0.398087 0.214337 0.153087
0.483520 0.238520 0.177270
0.568953 0.262703 0.201453
0.654387 0.286887 0.225637
0.052275 0.236025 0.113525
0.137708 0.260208 0.137708
0.223141 0.284391 0.161891
0.308574 0.308574 0.186075
0.394008 0.332758 0.210258
0.479441 0.356941 0.234441
0.564874 0.381124 0.258624
0.650308 0.405307 0.282808
0.735741 0.429491 0.306991
0.133629 0.378629 0.194879
0.219062 0.402812 0.219062
0.304495 0.426995 0.243245
0.389928 0.451178 0.267429
0.475362 0.475362 0.291612
0.560795 0.499545 0.315795
0.646228 0.523728 0.339978
0.731661 0.547911 0.364162
0.817095 0.572095 0.388345
0.214983 0.521233 0.276233
0.300416 0.545416 0.300416
0.385849 0.569599 0.324599
0.471282 0.593782 0.348782
0.556716 0.617966 0.372966
0.642149 0.642149 0.397149
0.727582 0.666332 0.421332
0.813015 0.690515 0.445515
0.898449 0.714699 0.469699
0.296337 0.663837 0.357587
0.381770 0.688020 0.381770
0.467203 0.712203 0.405953
0.552636 0.736387 0.430136
0.638070 0.760570 0.454320
0.723503 0.784753 0.478503
0.808936 0.808936 0.502686
0.894369 0.833119 0.526869
0.979803 0.857303 0.551053
0.377691 0.806441 0.438941
0.463124 0.830624 0.463124
0.548557 0.854807 0.487307
0.633990 0.878990 0.511490
0.719424 0.903174 0.535674
0.804857 0.927357 0.559857
0.890290 0.951540 0.584040
0.975723 0.975723 0.608223
1.000000 0.999907 0.632407
0.459045 0.949045 0.520295
0.544478 0.973228 0.544478
0.629911 0.997411 0.568661
0.715344 1.000000 0.592844
0.800778 1.000000 0.617028
0.886211 1.000000 0.641211
0.971644 1.000000 0.665394
1.000000 1.000000 0.689577
1.000000 1.000000 0.713761
0.000000 0.000000 0.000000
0.000000 0.000000 0.000000
0.000000 0.000000 0.000000
0.072725 0.000000 0.011475
0.158158 0.000000 0.035659
0.243592 0.000000 0.059842
0.329025 0.000000 0.084025
0.414458 0.000000 0.108208
0.499892 0.009892 0.132391
0.000000 0.000000 0.020280
0.000000 0.000000 0.044463
0.068646 0.007396 0.068646
0.154079 0.031579 0.092829
0.239512 0.055763 0.117012
0.324946 0.079946 0.141196
0.410379 0.104129 0.165379
0.495812 0.128312 0.189562
0.581245 0.152496 0.213745
0.000000 0.101633 0.101633
0.064567 0.125817 0.125817
0.150000 0.150000 0.150000
0.235433 0.174183 0.174183
0.320866 0.198367 0.198367
0.406300 0.222550 0.222550
0.491733 0.246733 0.246733
0.577166 0.270916 0.270916
0.662600 0.295099 0.295099
0.060488 0.244237 0.182988
0.145921 0.268421 0.207171
0.231354 0.292604 0.231354
0.316787 0.316787 0.255537
0.402220 0.340971 0.279721
0.487654 0.365154 0.303904
0.573087 0.389337 0.328087
0.658520 0.413520 0.352270
0.743953 0.437704 0.376454
0.141842 0.386842 0.264342
0.227275 0.411025 0.288525
0.312708 0.435208 0.312708
0.398141 0.459391 0.336891
0.483574 0.483574 0.361075
0.569008 0.507758 0.385258
0.654441 0.531941 0.409441
0.739874 0.556124 0.433624
0.825308 0.580307 0.457808
0.223196 0.529446 0.345695
0.308629 0.553629 0.369879
0.394062 0.577812 0.394062
0.479495 0.601995 0.418245
0.564928 0.626178 0.442428
0.650362 0.650362 0.466612
0.735795 0.674545 0.490795
0.821228 0.698728 0.514978
0.906661 0.722911 0.539161
0.304550 0.672049 0.427050
0.389983 0.696233 0.451233
0.475416 0.720416 0.475416
0.560849 0.744599 0.499599
0.646283 0.768783 0.523783
0.731716 0.792966 0.547966
0.817149 0.817149 0.572149
0.902582 0.841332 0.596332
0.988015 0.865515 0.620516
0.385903 0.814653 0.508403
0.471337 0.838837 0.532587
0.556770 0.863020 0.556770
0.642203 0.887203 0.580953
0.727636 0.911387 0.605137
0.813070 0.935570 0.629320
0.898503 0.959753 0.653503
0.983936 0.983936 0.677686
1.000000 1.000000 0.701869
0.467257 0.957257 0.589758
0.552691 0.981441 0.613941
0.638124 1.000000 0.638124
0.723557 1.000000 0.662307
0.808990 1.000000 0.686490
0.894424 1.000000 0.710674
0.979857 1.000000 0.734857
1.000000 1.000000 0.759040
1.000000 1.000000 0.783224
0.000000 0.000000 0.008388
0.000000 0.000000 0.032571
0.000000 0.000000 0.056755
0.080938 0.000000 0.080938
0.166371 0.000000 0.105121
0.251804 0.000000 0.129305
0.337238 0.000000 0.153488
0.422671 0.000000 0.177671
0.508104 0.018104 0.201854
0.000000 0.000000 0.089742
0.000000 0.000000 0.113926
0.076859 0.015609 0.138109
0.162292 0.039792 0.162292
0.247725 0.063975 0.186475
0.333159 0.088159 0.210659
0.418592 0.112342 0.234842
0.504025 0.136525 0.259025
0.589458 0.160708 0.283208
0.000000 0.109846 0.171096
0.072780 0.134030 0.195279
0.158213 0.158213 0.219463
0.243646 0.182396 0.243646
0.329079 0.206579 0.267829
0.414513 0.230763 0.292013
0.499946 0.254946 0.316196
0.585379 0.279129 0.340379
0.670812 0.303312 0.364562
0.068700 0.252450 0.252450
0.154134 0.276633 0.276633
0.239567 0.300817 0.300817
0.325000 0.325000 0.325000
0.410433 0.349183 0.349183
0.495866 0.373367 0.373367
0.581300 0.397550 0.397550
0.666733 0.421733 0.421733
0.752166 0.445916 0.445916
0.150054 0.395054 0.333804
0.235488 0.419237 0.357988
0.320921 0.443421 0.382171
0.406354 0.467604 0.406354
0.491787 0.491787 0.430537
0.577220 0.515970 0.454720
0.662654 0.540154 0.478904
0.748087 0.564337 0.503087
0.833520 0.588520 0.527270
0.231408 0.537658 0.415158
0.316841 0.561841 0.439341
0.402275 0.586025 0.463525
0.487708 0.610208 0.487708
0.573141 0.634391 0.511891
0.658574 0.658574 0.536074
0.744008 0.682758 0.560258
0.829441 0.706941 0.584441
0.914874 0.731124 0.608624
0.312762 0.680262 0.496512
0.398196 0.704446 0.520695
0.483629 0.728629 0.544879
0.569062 0.752812 0.569062
0.654495 0.776995 0.593245
0.739928 0.801179 0.617429
0.825362 0.825362 0.641612
0.910795 0.849545 0.665795
0.996228 0.873728 0.689978
0.394116 0.822866 0.577866
0.479549 0.847049 0.602049
0.564983 0.871233 0.626233
0.650416 0.895416 0.650416
0.735849 0.919599 0.674599
0.821282 0.943782 0.698782
0.906716 0.967966 0.722966
0.992149 0.992149 0.747149
1.000000 1.000000 0.771332
0.475470 0.965470 0.659220
0.560903 0.989653 0.683403
0.646337 1.000000 0.707587
0.731770 1.000000 0.731770
0.817203 1.000000 0.755953
0.902636 1.000000 0.780136
0.988070 1.000000 0.804320
1.000000 1.000000 0.828503
1.000000 1.000000 0.852686
0.000000 0.000000 0.077851
0.000000 0.000000 0.102034
0.003718 0.000000 0.126218
0.089151 0.000000 0.150401
0.174584 0.000000 0.174584
0.260017 0.000000 0.198767
0.345450 0.000000 0.222950
0.430884 0.002134 0.247134
0.516317 0.026317 0.271317
0.000000 0.000000 0.159205
0.000000 0.000000 0.183388
0.085072 0.023821 0.207571
0.170505 0.048005 0.231755
0.255938 0.072188 0.255938
0.341371 0.096371 0.280121
0.426804 0.120555 0.304305
0.512238 0.144738 0.328488
0.597671 0.168921 0.352671
0.000000 0.118059 0.240559
0.080992 0.142242 0.264742
0.166426 0.166426 0.288926
0.251859 0.190609 0.313109
0.337292 0.214792 0.337292
0.422725 0.238975 0.361475
0.508158 0.263159 0.385659
0.593592 0.287342 0.409842
0.679025 0.311525 0.434025
0.076913 0.260663 0.321913
0.162346 0.284846 0.346096
0.247780 0.309030 0.370280
0.333213 0.333213 0.394463
0.418646 0.357396 0.418646
0.504079 0.381579 0.442829
0.589512 0.405763 0.467013
0.674946 0.429946 0.491196
0.760379 0.454129 0.515379
0.158267 0.403267 0.403267
0.243700 0.427450 0.427450
0.329134 0.451634 0.451634
0.414567 0.475817 0.475817
0.500000 0.500000 0.500000
0.585433 0.524183 0.524183
0.670866 0.548367 0.548367
0.756300 0.572550 0.572550
0.841733 0.596733 0.596733
0.239621 0.545871 0.484621
0.325054 0.570054 0.508804
0.410488 0.594237 0.532988
0.495921 0.618421 0.557171
0.581354 0.642604 0.581354
0.666787 0.666787 0.605537
0.752220 0.690971 0.629720
0.837654 0.715154 0.653904
0.923087 0.739337 0.678087
0.320975 0.688475 0.565975
0.406408 0.712658 0.590158
0.491842 0.736842 0.614342
0.577275 0.761025 0.638525
0.662708 0.785208 0.662708
0.748141 0.809391 0.686891
0.833574 0.833574 0.711074
0.919008 0.857758 0.735258
1.000000 0.881941 0.759441
0.402329 0.831079 0.647329
0.487762 0.855262 0.671512
0.573195 0.879445 0.695695
0.658629 0.903629 0.719879
0.744062 0.927812 0.744062
0.829495 0.951995 0.768245
0.914928 0.976178 0.792428
1.000000 1.000000 0.816612
1.000000 1.000000 0.840795
0.483683 0.973683 0.728683
0.569116 0.997866 0.752866
0.654550 1.000000 0.777049
0.739983 1.000000 0.801233
0.825416 1.000000 0.825416
0.910849 1.000000 0.849599
0.996282 1.000000 0.873782
1.000000 1.000000 0.897966
1.000000 1.000000 0.922149
0.000000 0.000000 0.147314
0.000000 0.000000 0.171497
0.011930 0.000000 0.195680
0.097363 0.000000 0.219864
0.182797 0.000000 0.244047
0.268230 0.000000 0.268230
0.353663 0.000000 0.292413
0.439096 0.010346 0.316596
0.524530 0.034530 0.340780
0.000000 0.000000 0.228668
0.007851 0.007851 0.252851
0.093284 0.032034 0.277034
0.178718 0.056218 0.301218
0.264151 0.080401 0.325401
0.349584 0.104584 0.349584
0.435017 0.128767 0.373767
0.520451 0.152951 0.397950
0.605884 0.177134 0.422134
0.003772 0.126272 0.310022
0.089205 0.150455 0.334205
0.174638 0.174638 0.358388
0.260072 0.198821 0.382571
0.345505 0.223005 0.406755
0.430938 0.247188 0.430938
0.516371 0.271371 0.455121
0.601804 0.295554 0.479304
0.687238 0.319738 0.503488
0.085126 0.268876 0.391376
0.170559 0.293059 0.415559
0.255992 0.317242 0.439742
0.341426 0.341426 0.463925
0.426859 0.365609 0.488109
0.512292 0.389792 0.512292
0.597725 0.413975 0.536475
0.683159 0.438159 0.560658
0.768592 0.462342 0.584842
0.166480 0.411480 0.472730
0.251913 0.435663 0.496913
0.337346 0.459846 0.521096
0.422779 0.484030 0.545279
0.508213 0.508213 0.569463
0.593646 0.532396 0.593646
0.679079 0.556579 0.617829
0.764512 0.580762 0.642012
0.849946 0.604946 0.666196
0.247834 0.554084 0.554084
0.333267 0.578267 0.578267
0.418700 0.602450 0.602450
0.504134 0.626633 0.626633
0.589567 0.650817 0.650817
0.675000 0.675000 0.675000
0.760433 0.699183 0.699183
0.845866 0.723366 0.723366
0.931300 0.747550 0.747550
0.329188 0.696688 0.635438
0.414621 0.720871 0.659621
0.500054 0.745054 0.683804
0.585488 0.769238 0.707987
0.670921 0.793421 0.732171
0.756354 0.817604 0.756354
0.841787 0.841787 0.780537
0.927221 0.865970 0.804720
1.000000 0.890154 0.828904
0.410542 0.839292 0.716792
0.495975 0.863475 0.740975
0.581408 0.887658 0.765158
0.666841 0.911841 0.789341
0.752275 0.936025 0.813525
0.837708 0.960208 0.837708
0.923141 0.984391 0.861891
1.000000 1.000000 0.886074
1.000000 1.000000 0.910258
0.491896 0.981896 0.798146
0.577329 1.000000 0.822329
0.662762 1.000000 0.846512
0.748196 1.000000 0.870695
0.833629 1.000000 0.894879
0.919062 1.000000 0.919062
1.000000 1.000000 0.943245
1.000000 1.000000 0.967428
1.000000 1.000000 0.991612
0.000000 0.000000 0.216777
0.000000 0.000000 0.240960
0.020143 0.000000 0.265143
0.105576 0.000000 0.289326
0.191009 0.000000 0.313509
0.276443 0.000000 0.337693
0.361876 0.000000 0.361876
0.447309 0.018559 0.386059
0.532743 0.042743 0.410243
0.000000 0.000000 0.298131
0.016064 0.016064 0.322314
0.101497 0.040247 0.346497
0.186930 0.064430 0.370680
0.272363 0.088613 0.394864
0.357797 0.112797 0.419047
0.443230 0.136980 0.443230
0.528663 0.161163 0.467413
0.614097 0.185346 0.491596
0.011985 0.134485 0.379485
0.097418 0.158668 0.403668
0.182851 0.182851 0.427851
0.268284 0.207034 0.452034
0.353718 0.231218 0.476218
0.439151 0.255401 0.500401
0.524584 0.279584 0.524584
0.610017 0.303767 0.548767
0.695450 0.327951 0.572950
0.093339 0.277089 0.460838
0.178772 0.301272 0.485022
0.264205 0.325455 0.509205
0.349638 0.349638 0.533388
0.435071 0.373821 0.557571
0.520505 0.398005 0.581755
0.605938 0.422188 0.605938
0.691371 0.446371 0.630121
0.776804 0.470555 0.654305
0.174692 0.419692 0.542192
0.260126 0.443876 0.566376
0.345559 0.468059 0.590559
0.430992 0.492242 0.614742
0.516426 0.516426 0.638926
0.601859 0.540609 0.663109
0.687292 0.564792 0.687292
0.772725 0.588975 0.711475
0.858159 0.613159 0.735659
0.256047 0.562296 0.623547
0.341480 0.586480 0.647730
0.426913 0.610663 0.671913
0.512346 0.634846 0.696096
0.597779 0.659029 0.720279
0.683213 0.683213 0.744463
0.768646 0.707396 0.768646
0.854079 0.731579 0.792829
0.939512 0.755763 0.817012
0.337401 0.704901 0.704901
0.422834 0.729084 0.729084
0.508267 0.753267 0.753267
0.593700 0.777450 0.777450
0.679134 0.801634 0.801634
0.764567 0.825817 0.825817
0.850000 0.850000 0.850000
0.935433 0.874183 0.874183
1.000000 0.898367 0.898367
0.418754 0.847504 0.786254
0.504188 0.871688 0.810438
0.589621 0.895871 0.834621
0.675054 0.920054 0.858804
0.760487 0.944237 0.882988
0.845921 0.968421 0.907171
0.931354 0.992604 0.931354
1.000000 1.000000 0.955537
1.000000 1.000000 0.979720
0.500108 0.990109 0.867609
0.585542 1.000000 0.891792
0.670975 1.000000 0.915975
0.756408 1.000000 0.940158
0.841841 1.000000 0.964341
0.927275 1.000000 0.988525
1.000000 1.000000 1.000000
1.000000 1.000000 1.000000
1.000000 1.000000 1.000000
0.000000 0.000000 0.286239
0.000000 0.000000 0.310422
0.028356 0.000000 0.334606
0.113789 0.000000 0.358789
0.199222 0.000000 0.382972
0.284656 0.000000 0.407156
0.370089 0.002589 0.431339
0.455522 0.026772 0.455522
0.540955 0.050955 0.479705
0.000000 0.000093 0.367593
0.024277 0.024277 0.391776
0.109710 0.048460 0.415960
0.195143 0.072643 0.440143
0.280576 0.096826 0.464326
0.366009 0.121010 0.488509
0.451443 0.145193 0.512693
0.536876 0.169376 0.536876
0.622309 0.193559 0.561059
0.020197 0.142697 0.448947
0.105631 0.166880 0.473130
0.191064 0.191064 0.497314
0.276497 0.215247 0.521497
0.361930 0.239430 0.545680
0.447364 0.263614 0.569863
0.532797 0.287797 0.594047
0.618230 0.311980 0.618230
0.703663 0.336163 0.642413
0.101551 0.285301 0.530301
0.186984 0.309485 0.554484
0.272418 0.333668 0.578668
0.357851 0.357851 0.602851
0.443284 0.382034 0.627034
0.528717 0.406218 0.651218
0.614151 0.430401 0.675401
0.699584 0.454584 0.699584
0.785017 0.478767 0.723767
0.182905 0.427905 0.611655
0.268338 0.452088 0.635839
0.353772 0.476272 0.660022
0.439205 0.500455 0.684205
0.524638 0.524638 0.708388
0.610072 0.548821 0.732571
0.695505 0.573005 0.756755
0.780938 0.597188 0.780938
0.866371 0.621371 0.805121
0.264259 0.570509 0.693009
0.349692 0.594693 0.717192
0.435126 0.618876 0.741376
0.520559 0.643059 0.765559
0.605992 0.667242 0.789742
0.691425 0.691425 0.813925
0.776859 0.715609 0.838109
0.862292 0.739792 0.862292
0.947725 0.763975 0.886475
0.345613 0.713113 0.774363
0.431047 0.737296 0.798547
0.516480 0.761480 0.822730
0.601913 0.785663 0.846913
0.687346 0.809846 0.871096
0.772779 0.834029 0.895280
0.858213 0.858213 0.919463
0.943646 0.882396 0.943646
1.000000 0.906579 0.967829
0.426967 0.855717 0.855717
0.512400 0.879900 0.879900
0.597834 0.904084 0.904084
0.683267 0.928267 0.928267
0.768700 0.952450 0.952450
0.854133 0.976633 0.976633
0.939567 1.000000 1.000000
1.000000 1.000000 1.000000
1.000000 1.000000 1.000000
0.508321 0.998321 0.937071
0.593754 1.000000 0.961254
0.679188 1.000000 0.985438
0.764621 1.000000 1.000000
0.850054 1.000000 1.000000
0.935487 1.000000 1.000000
1.000000 1.000000 1.000000
1.000000 1.000000 1.000000
1.000000 1.000000 1.000000
0.000000 0.000000 0.355702
0.000000 0.000000 0.379885
0.036569 0.000000 0.404069
0.122002 0.000000 0.428252
0.207435 0.000000 0.452435
0.292868 0.000000 0.476618
0.378302 0.010802 0.500802
0.463735 0.034985 0.524985
0.549168 0.059168 0.549168
0.000000 0.008306 0.437056
0.032489 0.032489 0.461239
0.117923 0.056673 0.485422
0.203356 0.080856 0.509606
0.288789 0.105039 0.533789
0.374222 0.129222 0.557972
0.459655 0.153406 0.582155
0.545089 0.177589 0.606339
0.630522 0.201772 0.630522
0.028410 0.150910 0.518410
0.113843 0.175093 0.542593
0.199277 0.199277 0.566776
0.284710 0.223460 0.590960
0.370143 0.247643 0.615143
0.455576 0.271826 0.639326
0.541009 0.296010 0.663509
0.626443 0.320193 0.687693
0.711876 0.344376 0.711876
0.109764 0.293514 0.599764
0.195197 0.317697 0.623947
0.280631 0.341881 0.648131
0.366064 0.366064 0.672314
0.451497 0.390247 0.696497
0.536930 0.414430 0.720680
0.622363 0.438613 0.744863
0.707797 0.462797 0.769047
0.793230 0.486980 0.793230
0.191118 0.436118 0.681118
0.276551 0.460301 0.705301
0.361984 0.484484 0.729484
0.447418 0.508668 0.753668
0.532851 0.532851 0.777851
0.618284 0.557034 0.802034
0.703717 0.581218 0.826218
0.789151 0.605401 0.850401
0.874584 0.629584 0.874584
0.272472 0.578722 0.762472
0.357905 0.602905 0.786655
0.443339 0.627089 0.810839
0.528772 0.651272 0.835022
0.614205 0.675455 0.859205
0.699638 0.699638 0.883388
0.785072 0.723821 0.907571
0.870505 0.748005 0.931755
0.955938 0.772188 0.955938
0.353826 0.721326 0.843826
0.439259 0.745509 0.868009
0.524693 0.769693 0.892193
0.610126 0.793876 0.916376
0.695559 0.818059 0.940559
0.780992 0.842242 0.964742
0.866426 0.866426 0.988926
0.951859 0.890609 1.000000
1.000000 0.914792 1.000000
0.435180 0.863930 0.925180
0.520613 0.888113 0.949363
0.606047 0.912296 0.973547
0.691480 0.936480 0.997730
0.776913 0.960663 1.000000
0.862346 0.984846 1.000000
0.947779 1.000000 1.000000
1.000000 1.000000 1.000000
1.000000 1.000000 1.000000
0.516534 1.000000 1.000000
0.601967 1.000000 1.000000
0.687400 1.000000 1.000000
0.772834 1.000000 1.000000
0.858267 1.000000 1.000000
0.943700 1.000000 1.000000
1.000000 1.000000 1.000000
1.000000 1.000000 1.000000
1.000000 1.000000 1.000000
