public/luts/bleach_bypass.cube
TITLE "Bleach Bypass — luma desat + linear S-curve"
# Hand-authored by scripts/generate-bleach-bypass-lut.mjs
# Recipe: L = 0.2126*R + 0.7152*G + 0.0722*B (Rec.709 luma)
#         rgb_desat = lerp(rgb, vec3(L), 0.65)
#         out = clamp((rgb_desat - 0.5) * 1.4 + 0.5)
LUT_3D_SIZE 5
0.000000 0.000000 0.000000
0.000000 0.000000 0.000000
0.141733 0.000000 0.000000
0.312599 0.000000 0.000000
0.483466 0.000000 0.000000
0.000000 0.085208 0.000000
0.133574 0.133574 0.011075
0.304441 0.181941 0.059441
0.475307 0.230307 0.107808
0.646174 0.278674 0.156174
0.125416 0.370416 0.125416
0.296282 0.418782 0.173783
0.467149 0.467149 0.222149
0.638016 0.515516 0.270516
0.808882 0.563882 0.318882
0.288124 0.655624 0.288124
0.458991 0.703990 0.336491
0.629857 0.752357 0.384857
0.800723 0.800723 0.433223
0.971590 0.849090 0.481590
0.450832 0.940832 0.450832
0.621699 0.989198 0.499199
0.792565 1.000000 0.547565
0.963431 1.000000 0.595931
1.000000 1.000000 0.644298
0.000000 0.000000 0.000000
0.000000 0.000000 0.000000
0.158158 0.000000 0.035659
0.329025 0.000000 0.084025
0.499892 0.009892 0.132391
0.000000 0.101633 0.101633
0.150000 0.150000 0.150000
0.320866 0.198367 0.198367
0.491733 0.246733 0.246733
0.662600 0.295099 0.295099
0.141842 0.386842 0.264342
0.312708 0.435208 0.312708
0.483574 0.483574 0.361075
0.654441 0.531941 0.409441
0.825308 0.580307 0.457808
0.304550 0.672049 0.427050
0.475416 0.720416 0.475416
0.646283 0.768783 0.523783
0.817149 0.817149 0.572149
0.988015 0.865515 0.620516
0.467257 0.957257 0.589758
0.638124 1.000000 0.638124
0.808990 1.000000 0.686490
0.979857 1.000000 0.734857
1.000000 1.000000 0.783224
0.000000 0.000000 0.077851
0.003718 0.000000 0.126218
0.174584 0.000000 0.174584
0.345450 0.000000 0.222950
0.516317 0.026317 0.271317
0.000000 0.118059 0.240559
0.166426 0.166426 0.288926
0.337292 0.214792 0.337292
0.508158 0.263159 0.385659
0.679025 0.311525 0.434025
0.158267 0.403267 0.403267
0.329134 0.451634 0.451634
0.500000 0.500000 0.500000
0.670866 0.548367 0.548367
0.841733 0.596733 0.596733
0.320975 0.688475 0.565975
0.491842 0.736842 0.614342
0.662708 0.785208 0.662708
0.833574 0.833574 0.711074
1.000000 0.881941 0.759441
0.483683 0.973683 0.728683
0.654550 1.000000 0.777049
0.825416 1.000000 0.825416
0.996282 1.000000 0.873782
1.000000 1.000000 0.922149
0.000000 0.000000 0.216777
0.020143 0.000000 0.265143
0.191009 0.000000 0.313509
0.361876 0.000000 0.361876
0.532743 0.042743 0.410243
0.011985 0.134485 0.379485
0.182851 0.182851 0.427851
0.353718 0.231218 0.476218
0.524584 0.279584 0.524584
0.695450 0.327951 0.572950
0.174692 0.419692 0.542192
0.345559 0.468059 0.590559
0.516426 0.516426 0.638926
0.687292 0.564792 0.687292
0.858159 0.613159 0.735659
0.337401 0.704901 0.704901
0.508267 0.753267 0.753267
0.679134 0.801634 0.801634
0.850000 0.850000 0.850000
1.000000 0.898367 0.898367
0.500108 0.990109 0.867609
0.670975 1.000000 0.915975
0.841841 1.000000 0.964341
1.000000 1.000000 1.000000
1.000000 1.000000 1.000000
0.000000 0.000000 0.355702
0.036569 0.000000 0.404069
0.207435 0.000000 0.452435
0.378302 0.010802 0.500802
0.549168 0.059168 0.549168
0.028410 0.150910 0.518410
0.199277 0.199277 0.566776
0.370143 0.247643 0.615143
0.541009 0.296010 0.663509
0.711876 0.344376 0.711876
0.191118 0.436118 0.681118
0.361984 0.484484 0.729484
0.532851 0.532851 0.777851
0.703717 0.581218 0.826218
0.874584 0.629584 0.874584
0.353826 0.721326 0.843826
0.524693 0.769693 0.892193
0.695559 0.818059 0.940559
0.866426 0.866426 0.988926
1.000000 0.914792 1.000000
0.516534 1.000000 1.000000
0.687400 1.000000 1.000000
0.858267 1.000000 1.000000
1.000000 1.000000 1.000000
1.000000 1.000000 1.000000
