public/luts/bleach_bypass.cube
TITLE "Bleach Bypass — luma desat + linear S-curve"
# Hand-authored by scripts/generate-bleach-bypass-lut.mjs
# Recipe: L = 0.2126*R + 0.7152*G + 0.0722*B (Rec.709 luma)
#         rgb_desat = lerp(rgb, vec3(L), 0.65)
#         out = clamp((rgb_desat - 0.5) * 1.4 + 0.5)
LUT_3D_SIZE 17
0.000000 0.000000 0.000000
0.000000 0.000000 0.000000
0.000000 0.000000 0.000000
0.000000 0.000000 0.000000
0.000000 0.000000 0.000000
0.013583 0.000000 0.000000
0.056300 0.000000 0.000000
0.099016 0.000000 0.000000
0.141733 0.000000 0.000000
0.184450 0.000000 0.000000
0.227166 0.000000 0.000000
0.269883 0.000000 0.000000
0.312599 0.000000 0.000000
0.355316 0.000000 0.000000
0.398033 0.000000 0.000000
0.440749 0.000000 0.000000
0.483466 0.000000 0.000000
0.000000 0.000000 0.000000
0.000000 0.000000 0.000000
0.000000 0.000000 0.000000
0.000000 0.000000 0.000000
0.011543 0.000000 0.000000
0.054260 0.000000 0.000000
0.096977 0.000000 0.000000
0.139693 0.000000 0.000000
0.182410 0.000000 0.000000
0.225127 0.000000 0.000000
0.267843 0.000000 0.000000
0.310560 0.004310 0.000000
0.353277 0.016402 0.000000
0.395993 0.028493 0.000000
0.438710 0.040585 0.009960
0.481426 0.052676 0.022051
0.524143 0.064768 0.034143
0.000000 0.000000 0.000000
0.000000 0.000000 0.000000
0.000000 0.000000 0.000000
0.009504 0.000000 0.000000
0.052221 0.000000 0.000000
0.094937 0.003062 0.000000
0.137654 0.015154 0.000000
0.180370 0.027245 0.000000
0.223087 0.039337 0.000000
0.265804 0.051429 0.000000
0.308520 0.063520 0.002270
0.351237 0.075612 0.014362
0.393953 0.087704 0.026454
0.436670 0.099795 0.038545
0.479387 0.111887 0.050637
0.522103 0.123978 0.062728
0.564820 0.136070 0.074820
0.000000 0.013906 0.000000
0.000000 0.025998 0.000000
0.007464 0.038089 0.000000
0.050181 0.050181 0.000000
0.092898 0.062273 0.000000
0.135614 0.074364 0.000000
0.178331 0.086456 0.000000
0.221047 0.098547 0.006672
0.263764 0.110639 0.018764
0.306481 0.122731 0.030856
0.349197 0.134822 0.042947
0.391914 0.146914 0.055039
0.434630 0.159006 0.067131
0.477347 0.171097 0.079222
0.520064 0.183189 0.091314
0.562780 0.195280 0.103405
0.605497 0.207372 0.115497
0.000000 0.085208 0.000000
0.005425 0.097300 0.000000
0.048141 0.109391 0.000000
0.090858 0.121483 0.000000
0.133574 0.133574 0.011075
0.176291 0.145666 0.023166
0.219008 0.157758 0.035258
0.261724 0.169849 0.047349
0.304441 0.181941 0.059441
0.347158 0.194033 0.071533
0.389874 0.206124 0.083624
0.432591 0.218216 0.095716
0.475307 0.230307 0.107808
0.518024 0.242399 0.119899
0.560741 0.254491 0.131991
0.603457 0.266582 0.144082
0.646174 0.278674 0.156174
0.003385 0.156510 0.003385
0.046102 0.168602 0.015477
0.088818 0.180693 0.027568
0.131535 0.192785 0.039660
0.174251 0.204877 0.051752
0.216968 0.216968 0.063843
0.259685 0.229060 0.075935
0.302401 0.241151 0.088026
0.345118 0.253243 0.100118
0.387835 0.265335 0.112210
0.430551 0.277426 0.124301
0.473268 0.289518 0.136393
0.515984 0.301610 0.148485
0.558701 0.313701 0.160576
0.601418 0.325793 0.172668
0.644134 0.337884 0.184759
0.686851 0.349976 0.196851
0.044062 0.227812 0.044062
0.086779 0.239904 0.056154
0.129495 0.251995 0.068245
0.172212 0.264087 0.080337
0.214929 0.276179 0.092429
0.257645 0.288270 0.104520
0.300362 0.300362 0.116612
0.343078 0.312453 0.128703
0.385795 0.324545 0.140795
0.428512 0.336637 0.152887
0.471228 0.348728 0.164978
0.513945 0.360820 0.177070
0.556661 0.372911 0.189162
0.599378 0.385003 0.201253
0.642095 0.397095 0.213345
0.684811 0.409186 0.225436
0.727528 0.421278 0.237528
0.084739 0.299114 0.084739
0.127456 0.311206 0.096831
0.170172 0.323297 0.108922
0.212889 0.335389 0.121014
0.255606 0.347481 0.133105
0.298322 0.359572 0.145197
0.341039 0.371664 0.157289
0.383755 0.383755 0.169380
0.426472 0.395847 0.181472
0.469189 0.407939 0.193564
0.511905 0.420030 0.205655
0.554622 0.432122 0.217747
0.597338 0.444213 0.229838
0.640055 0.456305 0.241930
0.682772 0.468397 0.254022
0.725488 0.480488 0.266113
0.768205 0.492580 0.278205
0.125416 0.370416 0.125416
0.168133 0.382508 0.137508
0.210849 0.394599 0.149599
0.253566 0.406691 0.161691
0.296282 0.418782 0.173783
0.338999 0.430874 0.185874
0.381716 0.442966 0.197966
0.424432 0.455057 0.210057
0.467149 0.467149 0.222149
0.509866 0.479241 0.234241
0.552582 0.491332 0.246332
0.595299 0.503424 0.258424
0.638016 0.515516 0.270516
0.680732 0.527607 0.282607
0.723449 0.539699 0.294699
0.766165 0.551790 0.306790
0.808882 0.563882 0.318882
0.166093 0.441718 0.166093
0.208810 0.453810 0.178185
0.251526 0.465901 0.190276
0.294243 0.477993 0.202368
0.336960 0.490085 0.214460
0.379676 0.502176 0.226551
0.422393 0.514268 0.238643
0.465109 0.526359 0.250734
0.507826 0.538451 0.262826
0.550543 0.550543 0.274918
0.593259 0.562634 0.287009
0.635976 0.574726 0.299101
0.678692 0.586817 0.311192
0.721409 0.598909 0.323284
0.764126 0.611001 0.335376
0.806842 0.623092 0.347467
0.849559 0.635184 0.359559
0.206770 0.513020 0.206770
0.249487 0.525112 0.218862
0.292203 0.537203 0.230953
0.334920 0.549295 0.243045
0.377637 0.561387 0.255136
0.420353 0.573478 0.267228
0.463070 0.585570 0.279320
0.505786 0.597661 0.291411
0.548503 0.609753 0.303503
0.591220 0.621845 0.315595
0.633936 0.633936 0.327686
0.676653 0.646028 0.339778
0.719369 0.658119 0.351869
0.762086 0.670211 0.363961
0.804803 0.682303 0.376053
0.847519 0.694394 0.388144
0.890236 0.706486 0.400236
0.247447 0.584322 0.247447
0.290164 0.596414 0.259539
0.332880 0.608505 0.271630
0.375597 0.620597 0.283722
0.418314 0.632688 0.295813
0.461030 0.644780 0.307905
0.503747 0.656872 0.319997
0.546463 0.668963 0.332088
0.589180 0.681055 0.344180
0.631897 0.693147 0.356272
0.674613 0.705238 0.368363
0.717330 0.717330 0.380455
0.760046 0.729421 0.392547
0.802763 0.741513 0.404638
0.845480 0.753605 0.416730
0.888196 0.765696 0.428821
0.930913 0.777788 0.440913
0.288124 0.655624 0.288124
0.330841 0.667716 0.300216
0.373557 0.679807 0.312307
0.416274 0.691899 0.324399
0.458991 0.703990 0.336491
0.501707 0.716082 0.348582
0.544424 0.728174 0.360674
0.587140 0.740265 0.372765
0.629857 0.752357 0.384857
0.672574 0.764449 0.396949
0.715290 0.776540 0.409040
0.758007 0.788632 0.421132
0.800723 0.800723 0.433223
0.843440 0.812815 0.445315
0.886157 0.824907 0.457407
0.928873 0.836998 0.469498
0.971590 0.849090 0.481590
0.328801 0.726926 0.328801
0.371518 0.739018 0.340893
0.414234 0.751109 0.352984
0.456951 0.763201 0.365076
0.499667 0.775292 0.377167
0.542384 0.787384 0.389259
0.585101 0.799476 0.401351
0.627817 0.811567 0.413442
0.670534 0.823659 0.425534
0.713251 0.835751 0.437626
0.755967 0.847842 0.449717
0.798684 0.859934 0.461809
0.841400 0.872025 0.473901
0.884117 0.884117 0.485992
0.926834 0.896209 0.498084
0.969550 0.908300 0.510175
1.000000 0.920392 0.522267
0.369478 0.798228 0.369478
0.412195 0.810320 0.381570
0.454911 0.822411 0.393661
0.497628 0.834503 0.405753
0.540344 0.846594 0.417844
0.583061 0.858686 0.429936
0.625778 0.870778 0.442028
0.668494 0.882869 0.454119
0.711211 0.894961 0.466211
0.753928 0.907053 0.478303
0.796644 0.919144 0.490394
0.839361 0.931236 0.502486
0.882077 0.943327 0.514577
0.924794 0.955419 0.526669
0.967511 0.967511 0.538761
1.000000 0.979602 0.550852
1.000000 0.991694 0.562944
0.410155 0.869530 0.410155
0.452872 0.881622 0.422247
0.495588 0.893713 0.434338
0.538305 0.905805 0.446430
0.581021 0.917896 0.458522
0.623738 0.929988 0.470613
0.666455 0.942080 0.482705
0.709171 0.954171 0.494796
0.751888 0.966263 0.506888
0.794605 0.978355 0.518980
0.837321 0.990446 0.531071
0.880038 1.000000 0.543163
0.922754 1.000000 0.555254
0.965471 1.000000 0.567346
1.000000 1.000000 0.579438
1.000000 1.000000 0.591529
1.000000 1.000000 0.603621
0.450832 0.940832 0.450832
0.493549 0.952924 0.462924
0.536265 0.965015 0.475015
0.578982 0.977107 0.487107
0.621699 0.989198 0.499199
0.664415 1.000000 0.511290
0.707132 1.000000 0.523382
0.749848 1.000000 0.535473
0.792565 1.000000 0.547565
0.835282 1.000000 0.559657
0.877998 1.000000 0.571748
0.920715 1.000000 0.583840
0.963431 1.000000 0.595931
1.000000 1.000000 0.608023
1.000000 1.000000 0.620115
1.000000 1.000000 0.632206
1.000000 1.000000 0.644298
0.000000 0.000000 0.000000
0.000000 0.000000 0.000000
0.000000 0.000000 0.000000
0.000000 0.000000 0.000000
0.000000 0.000000 0.000000
0.017690 0.000000 0.000000
0.060406 0.000000 0.000000
0.103123 0.000000 0.000000
0.145839 0.000000 0.000000
0.188556 0.000000 0.000000
0.231273 0.000000 0.000000
0.273989 0.000000 0.000000
0.316706 0.000000 0.000000
0.359422 0.000000 0.000000
0.402139 0.000000 0.004014
0.444856 0.000000 0.016106
0.487572 0.000000 0.028197
0.000000 0.000000 0.000000
0.000000 0.000000 0.000000
0.000000 0.000000 0.000000
0.000000 0.000000 0.000000
0.015650 0.000000 0.000000
0.058366 0.000000 0.000000
0.101083 0.000000 0.000000
0.143800 0.000000 0.000000
0.186516 0.000000 0.000000
0.229233 0.000000 0.000000
0.271950 0.000000 0.000000
0.314666 0.008416 0.008416
0.357383 0.020508 0.020508
0.400099 0.032600 0.032600
0.442816 0.044691 0.044691
0.485533 0.056783 0.056783
0.528249 0.068874 0.068874
0.000000 0.000000 0.000000
0.000000 0.000000 0.000000
0.000000 0.000000 0.000000
0.013610 0.000000 0.000000
0.056327 0.000000 0.000000
0.099044 0.007169 0.000000
0.141760 0.019260 0.000000
0.184477 0.031352 0.000727
0.227193 0.043443 0.012818
0.269910 0.055535 0.024910
0.312627 0.067627 0.037002
0.355343 0.079718 0.049093
0.398060 0.091810 0.061185
0.440777 0.103902 0.073277
0.483493 0.115993 0.085368
0.526210 0.128085 0.097460
0.568926 0.140176 0.109551
0.000000 0.018012 0.000000
0.000000 0.030104 0.000000
0.011571 0.042196 0.000000
0.054287 0.054287 0.000000
0.097004 0.066379 0.005129
0.139720 0.078471 0.017221
0.182437 0.090562 0.029312
0.225154 0.102654 0.041404
0.267870 0.114745 0.053495
0.310587 0.126837 0.065587
0.353304 0.138929 0.077679
0.396020 0.151020 0.089770
0.438737 0.163112 0.101862
0.481453 0.175204 0.113953
0.524170 0.187295 0.126045
0.566887 0.199387 0.138137
0.609603 0.211478 0.150228
0.000000 0.089314 0.000000
0.009531 0.101406 0.009531
0.052248 0.113498 0.021623
0.094964 0.125589 0.033714
0.137681 0.137681 0.045806
0.180398 0.149773 0.057898
0.223114 0.161864 0.069989
0.265831 0.173956 0.082081
0.308547 0.186047 0.094172
0.351264 0.198139 0.106264
0.393981 0.210231 0.118356
0.436697 0.222322 0.130447
0.479414 0.234414 0.142539
0.522130 0.246506 0.154631
0.564847 0.258597 0.166722
0.607564 0.270689 0.178814
0.650280 0.282780 0.190905
0.007491 0.160616 0.038116
0.050208 0.172708 0.050208
0.092925 0.184800 0.062300
0.135641 0.196891 0.074391
0.178358 0.208983 0.086483
0.221074 0.221074 0.098574
0.263791 0.233166 0.110666
0.306508 0.245258 0.122758
0.349224 0.257349 0.134849
0.391941 0.269441 0.146941
0.434658 0.281533 0.159033
0.477374 0.293624 0.171124
0.520091 0.305716 0.183216
0.562808 0.317808 0.195308
0.605524 0.329899 0.207399
0.648241 0.341991 0.219491
0.690957 0.354082 0.231582
0.048168 0.231918 0.078793
0.090885 0.244010 0.090885
0.133602 0.256102 0.102977
0.176318 0.268193 0.115068
0.219035 0.280285 0.127160
0.261752 0.292377 0.139252
0.304468 0.304468 0.151343
0.347185 0.316560 0.163435
0.389901 0.328651 0.175526
0.432618 0.340743 0.187618
0.475335 0.352835 0.199710
0.518051 0.364926 0.211801
0.560768 0.377018 0.223893
0.603484 0.389109 0.235985
0.646201 0.401201 0.248076
0.688918 0.413293 0.260168
0.731634 0.425384 0.272259
0.088845 0.303220 0.119470
0.131562 0.315312 0.131562
0.174279 0.327404 0.143654
0.216995 0.339495 0.155745
0.259712 0.351587 0.167837
0.302428 0.363678 0.179928
0.345145 0.375770 0.192020
0.387862 0.387862 0.204112
0.430578 0.399953 0.216203
0.473295 0.412045 0.228295
0.516012 0.424137 0.240387
0.558728 0.436228 0.252478
0.601445 0.448320 0.264570
0.644161 0.460411 0.276661
0.686878 0.472503 0.288753
0.729595 0.484595 0.300845
0.772311 0.496686 0.312936
0.129522 0.374522 0.160147
0.172239 0.386614 0.172239
0.214956 0.398706 0.184331
0.257672 0.410797 0.196422
0.300389 0.422889 0.208514
0.343105 0.434980 0.220606
0.385822 0.447072 0.232697
0.428539 0.459164 0.244789
0.471255 0.471255 0.256880
0.513972 0.483347 0.268972
0.556689 0.495439 0.281064
0.599405 0.507530 0.293155
0.642122 0.519622 0.305247
0.684838 0.531714 0.317339
0.727555 0.543805 0.329430
0.770272 0.555897 0.341522
0.812988 0.567988 0.353613
0.170199 0.445824 0.200824
0.212916 0.457916 0.212916
0.255633 0.470008 0.225008
0.298349 0.482099 0.237099
0.341066 0.494191 0.249191
0.383783 0.506282 0.261282
0.426499 0.518374 0.273374
0.469216 0.530466 0.285466
0.511932 0.542557 0.297557
0.554649 0.554649 0.309649
0.597366 0.566741 0.321741
0.640082 0.578832 0.333832
0.682799 0.590924 0.345924
0.725515 0.603015 0.358016
0.768232 0.615107 0.370107
0.810949 0.627199 0.382199
0.853665 0.639290 0.394290
0.210876 0.517126 0.241501
0.253593 0.529218 0.253593
0.296310 0.541310 0.265685
0.339026 0.553401 0.277776
0.381743 0.565493 0.289868
0.424459 0.577584 0.301960
0.467176 0.589676 0.314051
0.509893 0.601768 0.326143
0.552609 0.613859 0.338234
0.595326 0.625951 0.350326
0.638043 0.638043 0.362418
0.680759 0.650134 0.374509
0.723476 0.662226 0.386601
0.766192 0.674318 0.398693
0.808909 0.686409 0.410784
0.851626 0.698501 0.422876
0.894342 0.710592 0.434967
0.251553 0.588428 0.282178
0.294270 0.600520 0.294270
0.336987 0.612612 0.306362
0.379703 0.624703 0.318453
0.422420 0.636795 0.330545
0.465137 0.648887 0.342637
0.507853 0.660978 0.354728
0.550570 0.673070 0.366820
0.593286 0.685161 0.378911
0.636003 0.697253 0.391003
0.678720 0.709345 0.403095
0.721436 0.721436 0.415186
0.764153 0.733528 0.427278
0.806870 0.745620 0.439370
0.849586 0.757711 0.451461
0.892303 0.769803 0.463553
0.935019 0.781894 0.475644
0.292230 0.659730 0.322855
0.334947 0.671822 0.334947
0.377664 0.683914 0.347039
0.420380 0.696005 0.359130
0.463097 0.708097 0.371222
0.505814 0.720189 0.383314
0.548530 0.732280 0.395405
0.591247 0.744372 0.407497
0.633963 0.756463 0.419588
0.676680 0.768555 0.431680
0.719397 0.780647 0.443772
0.762113 0.792738 0.455863
0.804830 0.804830 0.467955
0.847546 0.816921 0.480046
0.890263 0.829013 0.492138
0.932980 0.841105 0.504230
0.975696 0.853196 0.516321
0.332907 0.731032 0.363532
0.375624 0.743124 0.375624
0.418341 0.755216 0.387716
0.461057 0.767307 0.399807
0.503774 0.779399 0.411899
0.546491 0.791490 0.423991
0.589207 0.803582 0.436082
0.631924 0.815674 0.448174
0.674640 0.827765 0.460265
0.717357 0.839857 0.472357
0.760074 0.851949 0.484449
0.802790 0.864040 0.496540
0.845507 0.876132 0.508632
0.888224 0.888224 0.520724
0.930940 0.900315 0.532815
0.973657 0.912407 0.544907
1.000000 0.924498 0.556998
0.373584 0.802334 0.404209
0.416301 0.814426 0.416301
0.459018 0.826518 0.428393
0.501734 0.838609 0.440484
0.544451 0.850701 0.452576
0.587167 0.862793 0.464667
0.629884 0.874884 0.476759
0.672601 0.886976 0.488851
0.715317 0.899067 0.500942
0.758034 0.911159 0.513034
0.800751 0.923251 0.525126
0.843467 0.935342 0.537217
0.886184 0.947434 0.549309
0.928900 0.959525 0.561400
0.971617 0.971617 0.573492
1.000000 0.983709 0.585584
1.000000 0.995800 0.597675
0.414261 0.873636 0.444886
0.456978 0.885728 0.456978
0.499695 0.897820 0.469070
0.542411 0.909911 0.481161
0.585128 0.922003 0.493253
0.627845 0.934095 0.505345
0.670561 0.946186 0.517436
0.713278 0.958278 0.529528
0.755994 0.970369 0.541619
0.798711 0.982461 0.553711
0.841428 0.994553 0.565803
0.884144 1.000000 0.577894
0.926861 1.000000 0.589986
0.969577 1.000000 0.602078
1.000000 1.000000 0.614169
1.000000 1.000000 0.626261
1.000000 1.000000 0.638352
0.454938 0.944938 0.485563
0.497655 0.957030 0.497655
0.540372 0.969122 0.509747
0.583088 0.981213 0.521838
0.625805 0.993305 0.533930
0.668521 1.000000 0.546022
0.711238 1.000000 0.558113
0.753955 1.000000 0.570205
0.796671 1.000000 0.582296
0.839388 1.000000 0.594388
0.882105 1.000000 0.606480
0.924821 1.000000 0.618571
0.967538 1.000000 0.630663
1.000000 1.000000 0.642755
1.000000 1.000000 0.654846
1.000000 1.000000 0.666938
1.000000 1.000000 0.679029
0.000000 0.000000 0.000000
0.000000 0.000000 0.000000
0.000000 0.000000 0.000000
0.000000 0.000000 0.000000
0.000000 0.000000 0.000000
0.021796 0.000000 0.000000
0.064512 0.000000 0.000000
0.107229 0.000000 0.000000
0.149946 0.000000 0.000000
0.192662 0.000000 0.000000
0.235379 0.000000 0.000000
0.278096 0.000000 0.002471
0.320812 0.000000 0.014562
0.363529 0.000000 0.026654
0.406245 0.000000 0.038745
0.448962 0.000000 0.050837
0.491679 0.001679 0.062929
0.000000 0.000000 0.000000
0.000000 0.000000 0.000000
0.000000 0.000000 0.000000
0.000000 0.000000 0.000000
0.019756 0.000000 0.000000
0.062473 0.000000 0.000000
0.105190 0.000000 0.000000
0.147906 0.000000 0.000000
0.190623 0.000000 0.006873
0.233339 0.000000 0.018964
0.276056 0.000431 0.031056
0.318773 0.012523 0.043148
0.361489 0.024614 0.055239
0.404206 0.036706 0.067331
0.446923 0.048798 0.079423
0.489639 0.060889 0.091514
0.532356 0.072981 0.103606
0.000000 0.000000 0.000000
0.000000 0.000000 0.000000
0.000000 0.000000 0.000000
0.017717 0.000000 0.000000
0.060433 0.000000 0.000000
0.103150 0.011275 0.011275
0.145867 0.023367 0.023367
0.188583 0.035458 0.035458
0.231300 0.047550 0.047550
0.274016 0.059641 0.059641
0.316733 0.071733 0.071733
0.359450 0.083825 0.083825
0.402166 0.095916 0.095916
0.444883 0.108008 0.108008
0.487599 0.120099 0.120099
0.530316 0.132191 0.132191
0.573033 0.144283 0.144283
0.000000 0.022119 0.000000
0.000000 0.034210 0.003585
0.015677 0.046302 0.015677
0.058394 0.058394 0.027769
0.101110 0.070485 0.039860
0.143827 0.082577 0.051952
0.186543 0.094668 0.064044
0.229260 0.106760 0.076135
0.271977 0.118852 0.088227
0.314693 0.130943 0.100318
0.357410 0.143035 0.112410
0.400127 0.155127 0.124502
0.442843 0.167218 0.136593
0.485560 0.179310 0.148685
0.528277 0.191402 0.160777
0.570993 0.203493 0.172868
0.613710 0.215585 0.184960
0.000000 0.093421 0.032171
0.013637 0.105512 0.044262
0.056354 0.117604 0.056354
0.099071 0.129696 0.068446
0.141787 0.141787 0.080537
0.184504 0.153879 0.092629
0.227220 0.165971 0.104721
0.269937 0.178062 0.116812
0.312654 0.190154 0.128904
0.355370 0.202245 0.140995
0.398087 0.214337 0.153087
0.440804 0.226429 0.165179
0.483520 0.238520 0.177270
0.526237 0.250612 0.189362
0.568953 0.262703 0.201453
0.611670 0.274795 0.213545
0.654387 0.286887 0.225637
0.011598 0.164723 0.072848
0.054314 0.176814 0.084939
0.097031 0.188906 0.097031
0.139748 0.200998 0.109123
0.182464 0.213089 0.121214
0.225181 0.225181 0.133306
0.267898 0.237272 0.145398
0.310614 0.249364 0.157489
0.353331 0.261456 0.169581
0.396047 0.273547 0.181672
0.438764 0.285639 0.193764
0.481481 0.297731 0.205856
0.524197 0.309822 0.217947
0.566914 0.321914 0.230039
0.609630 0.334006 0.242131
0.652347 0.346097 0.254222
0.695064 0.358189 0.266314
0.052275 0.236025 0.113525
0.094991 0.248116 0.125616
0.137708 0.260208 0.137708
0.180425 0.272300 0.149800
0.223141 0.284391 0.161891
0.265858 0.296483 0.173983
0.308574 0.308574 0.186075
0.351291 0.320666 0.198166
0.394008 0.332758 0.210258
0.436724 0.344849 0.222349
0.479441 0.356941 0.234441
0.522158 0.369033 0.246533
0.564874 0.381124 0.258624
0.607591 0.393216 0.270716
0.650308 0.405307 0.282808
0.693024 0.417399 0.294899
0.735741 0.429491 0.306991
0.092952 0.307327 0.154202
0.135668 0.319418 0.166293
0.178385 0.331510 0.178385
0.221102 0.343602 0.190477
0.263818 0.355693 0.202568
0.306535 0.367785 0.214660
0.349251 0.379877 0.226751
0.391968 0.391968 0.238843
0.434685 0.404060 0.250935
0.477401 0.416151 0.263026
0.520118 0.428243 0.275118
0.562835 0.440335 0.287210
0.605551 0.452426 0.299301
0.648268 0.464518 0.311393
0.690984 0.476609 0.323484
0.733701 0.488701 0.335576
0.776418 0.500793 0.347668
0.133629 0.378629 0.194879
0.176345 0.390720 0.206970
0.219062 0.402812 0.219062
0.261779 0.414904 0.231154
0.304495 0.426995 0.243245
0.347212 0.439087 0.255337
0.389928 0.451178 0.267429
0.432645 0.463270 0.279520
0.475362 0.475362 0.291612
0.518078 0.487453 0.303703
0.560795 0.499545 0.315795
0.603512 0.511637 0.327887
0.646228 0.523728 0.339978
0.688945 0.535820 0.352070
0.731661 0.547911 0.364162
0.774378 0.560003 0.376253
0.817095 0.572095 0.388345
0.174306 0.449931 0.235556
0.217022 0.462022 0.247647
0.259739 0.474114 0.259739
0.302456 0.486206 0.271831
0.345172 0.498297 0.283922
0.387889 0.510389 0.296014
0.430606 0.522480 0.308106
0.473322 0.534572 0.320197
0.516039 0.546664 0.332289
0.558755 0.558755 0.344380
0.601472 0.570847 0.356472
0.644189 0.582939 0.368564
0.686905 0.595030 0.380655
0.729622 0.607122 0.392747
0.772338 0.619213 0.404838
0.815055 0.631305 0.416930
0.857772 0.643397 0.429022
0.214983 0.521233 0.276233
0.257699 0.533324 0.288324
0.300416 0.545416 0.300416
0.343133 0.557508 0.312508
0.385849 0.569599 0.324599
0.428566 0.581691 0.336691
0.471282 0.593782 0.348782
0.513999 0.605874 0.360874
0.556716 0.617966 0.372966
0.599432 0.630057 0.385057
0.642149 0.642149 0.397149
0.684866 0.654241 0.409241
0.727582 0.666332 0.421332
0.770299 0.678424 0.433424
0.813015 0.690515 0.445515
0.855732 0.702607 0.457607
0.898449 0.714699 0.469699
0.255660 0.592535 0.316910
0.298376 0.604626 0.329001
0.341093 0.616718 0.341093
0.383810 0.628810 0.353185
0.426526 0.640901 0.365276
0.469243 0.652993 0.377368
0.511959 0.665084 0.389459
0.554676 0.677176 0.401551
0.597393 0.689268 0.413643
0.640109 0.701359 0.425734
0.682826 0.713451 0.437826
0.725543 0.725543 0.449918
0.768259 0.737634 0.462009
0.810976 0.749726 0.474101
0.853692 0.761817 0.486192
0.896409 0.773909 0.498284
0.939126 0.786001 0.510376
0.296337 0.663837 0.357587
0.339053 0.675928 0.369678
0.381770 0.688020 0.381770
0.424487 0.700112 0.393862
0.467203 0.712203 0.405953
0.509920 0.724295 0.418045
0.552636 0.736387 0.430136
0.595353 0.748478 0.442228
0.638070 0.760570 0.454320
0.680786 0.772661 0.466411
0.723503 0.784753 0.478503
0.766220 0.796845 0.490595
0.808936 0.808936 0.502686
0.851653 0.821028 0.514778
0.894369 0.833119 0.526869
0.937086 0.845211 0.538961
0.979803 0.857303 0.551053
0.337014 0.735139 0.398264
0.379730 0.747230 0.410355
0.422447 0.759322 0.422447
0.465164 0.771414 0.434539
0.507880 0.783505 0.446630
0.550597 0.795597 0.458722
0.593314 0.807688 0.470813
0.636030 0.819780 0.482905
0.678747 0.831872 0.494997
0.721463 0.843963 0.507088
0.764180 0.856055 0.519180
0.806897 0.868147 0.531272
0.849613 0.880238 0.543363
0.892330 0.892330 0.555455
0.935046 0.904421 0.567546
0.977763 0.916513 0.579638
1.000000 0.928605 0.591730
0.377691 0.806441 0.438941
0.420407 0.818532 0.451032
0.463124 0.830624 0.463124
0.505841 0.842716 0.475216
0.548557 0.854807 0.487307
0.591274 0.866899 0.499399
0.633990 0.878990 0.511490
0.676707 0.891082 0.523582
0.719424 0.903174 0.535674
0.762140 0.915265 0.547765
0.804857 0.927357 0.559857
0.847574 0.939449 0.571949
0.890290 0.951540 0.584040
0.933007 0.963632 0.596132
0.975723 0.975723 0.608223
1.000000 0.987815 0.620315
1.000000 0.999907 0.632407
0.418368 0.877743 0.479618
0.461084 0.889834 0.491709
0.503801 0.901926 0.503801
0.546518 0.914018 0.515893
0.589234 0.926109 0.527984
0.631951 0.938201 0.540076
0.674667 0.950292 0.552167
0.717384 0.962384 0.564259
0.760101 0.974476 0.576351
0.802817 0.986567 0.588442
0.845534 0.998659 0.600534
0.888251 1.000000 0.612626
0.930967 1.000000 0.624717
0.973684 1.000000 0.636809
1.000000 1.000000 0.648900
1.000000 1.000000 0.660992
1.000000 1.000000 0.673084
0.459045 0.949045 0.520295
0.501761 0.961136 0.532386
0.544478 0.973228 0.544478
0.587195 0.985320 0.556570
0.629911 0.997411 0.568661
0.672628 1.000000 0.580753
0.715344 1.000000 0.592844
0.758061 1.000000 0.604936
0.800778 1.000000 0.617028
0.843494 1.000000 0.629119
0.886211 1.000000 0.641211
0.928928 1.000000 0.653303
0.971644 1.000000 0.665394
1.000000 1.000000 0.677486
1.000000 1.000000 0.689577
1.000000 1.000000 0.701669
1.000000 1.000000 0.713761
0.000000 0.000000 0.000000
0.000000 0.000000 0.000000
0.000000 0.000000 0.000000
0.000000 0.000000 0.000000
0.000000 0.000000 0.000000
0.025902 0.000000 0.000000
0.068619 0.000000 0.000000
0.111336 0.000000 0.000000
0.154052 0.000000 0.000927
0.196769 0.000000 0.013019
0.239485 0.000000 0.025110
